assets/icons/traton/image.svg

<svg xmlns="http://www.w3.org/2000/svg" width="32" height="32" viewBox="0 0 32 32" fill="none">
<path d="M30 26H2V6H30V26ZM14 21.4141L11 18.4141L5.41406 24H28V21.4141L21 14.4141L14 21.4141ZM4 22.5859L11 15.5859L14 18.5859L21 11.5859L28 18.5859V8H4V22.5859Z" fill="#001D21" />
</svg>

<svg xmlns="http://www.w3.org/2000/svg" fill="none" viewBox="0 0 32 32"><path fill="#001d21" d="M30 26H2V6h28zm-16-4.6-3-3L5.4 24H28v-2.6l-7-7zM4 22.6l7-7 3 3 7-7 7 7V8H4z"/></svg>
